X:208
T:New Rigg’d Ship,3voices. JGi.208
M:6/8
L:1/8
Q:3/8=90
S:Joshua Gibbons MS,1823,Tealby,Lincs.
N:First part only on final page of MS.
R:Jig
O:Tealby,Lincolnshire
Z:VMP/R.Greig, 2009
K:C
[V:1]|:c2cc2e|c2cc2e|dBGG2e|dBG GAB|
[V:2]|:E2E EGc|E2E EGc|D2DD2G|D2DD2G|
[V:3]|:C,3C3|C,3C3|G,2G,G,2G,|G,3G,,3|
[V:1]c2cc2e|c2cc2e|dBG GAB|c3-c3:|
[V:2]E2E EGc|E2E EGc|D2DD2G|E3-E3:|
[V:3]C,3C3|C,3C3|G,3G,,3|C,3-C,3:|
